src/chart.svg

<svg viewBox="0 0 16 16" fill="none" xmlns="http://www.w3.org/2000/svg"><path d="M3 13V2H2v12h12v-1H3Zm5-8H7v7h1V5ZM6 8H5v4h1V8Zm4-5H9v9h1V3Zm2 6h-1v3h1V9Z" fill="#111111"/></svg>

<svg viewBox="0 0 16 16" fill="none" xmlns="http://www.w3.org/2000/svg"><path d="M3 13V2H2V14H14V13H3ZM8 5H7V12H8V5ZM6 8H5V12H6V8ZM10 3H9V12H10V3ZM12 9H11V12H12V9Z" fill="#111111"/></svg>
